assets/offering/vitvaror.svg

<svg width="48" height="47" viewBox="0 0 48 47" fill="none" xmlns="http://www.w3.org/2000/svg">
<mask id="mask0" mask-type="alpha" maskUnits="userSpaceOnUse" x="0" y="0" width="49" height="47">
<path fill-rule="evenodd" clip-rule="evenodd" d="M0.00012207 0.232422H48V46.7952H0.00012207V0.232422Z" fill="white"/>
</mask>
<g mask="url(#mask0)">
<path fill-rule="evenodd" clip-rule="evenodd" d="M48.0001 23.5139C48.0001 36.3721 37.2551 46.7954 24.0001 46.7954C10.7451 46.7954 0.00012207 36.3721 0.00012207 23.5139C0.00012207 10.6557 10.7451 0.232422 24.0001 0.232422C37.2551 0.232422 48.0001 10.6557 48.0001 23.5139Z" fill="#FF8A80"/>
</g>
<path fill-rule="evenodd" clip-rule="evenodd" d="M29.4113 26.1597L29.0123 25.8687C26.0603 23.722 21.9393 23.722 18.9883 25.8687L18.5893 26.1597L17.9883 25.3837L18.3893 25.0926C21.6913 22.6879 26.3083 22.6879 29.6113 25.0926L30.0123 25.3837L29.4113 26.1597Z" fill="white"/>
<path fill-rule="evenodd" clip-rule="evenodd" d="M16.421 34.7847C16.145 34.7847 15.921 34.5674 15.921 34.2996V33.0114C15.921 32.7437 16.145 32.5264 16.421 32.5264C16.697 32.5264 16.921 32.7437 16.921 33.0114V34.2996C16.921 34.5674 16.697 34.7847 16.421 34.7847Z" fill="white"/>
<path fill-rule="evenodd" clip-rule="evenodd" d="M31.5792 34.7847C31.3032 34.7847 31.0792 34.5674 31.0792 34.2996V33.0114C31.0792 32.7437 31.3032 32.5264 31.5792 32.5264C31.8552 32.5264 32.0792 32.7437 32.0792 33.0114V34.2996C32.0792 34.5674 31.8552 34.7847 31.5792 34.7847Z" fill="white"/>
<mask id="mask1" mask-type="alpha" maskUnits="userSpaceOnUse" x="0" y="0" width="48" height="47">
<path fill-rule="evenodd" clip-rule="evenodd" d="M0 46.7954H48V0.232422H0V46.7954Z" fill="white"/>
</mask>
<g mask="url(#mask1)">
<path fill-rule="evenodd" clip-rule="evenodd" d="M13.877 31.5653H34.123V13.2126H13.877V31.5653ZM12.877 32.5354H35.123V12.2427H12.877V32.5354Z" fill="white"/>
<path fill-rule="evenodd" clip-rule="evenodd" d="M20.0167 17.8805C20.0167 17.1695 19.4217 16.5923 18.6887 16.5923C17.9547 16.5923 17.3607 17.1695 17.3607 17.8805C17.3607 18.5916 17.9547 19.1688 18.6887 19.1688C19.4217 19.1688 20.0167 18.5916 20.0167 17.8805Z" fill="white"/>
<path fill-rule="evenodd" clip-rule="evenodd" d="M25.3282 17.8805C25.3282 17.1695 24.7332 16.5923 24.0002 16.5923C23.2662 16.5923 22.6722 17.1695 22.6722 17.8805C22.6722 18.5916 23.2662 19.1688 24.0002 19.1688C24.7332 19.1688 25.3282 18.5916 25.3282 17.8805Z" fill="white"/>
<path fill-rule="evenodd" clip-rule="evenodd" d="M30.6398 17.8805C30.6398 17.1695 30.0448 16.5923 29.3118 16.5923C28.5778 16.5923 27.9838 17.1695 27.9838 17.8805C27.9838 18.5916 28.5778 19.1688 29.3118 19.1688C30.0448 19.1688 30.6398 18.5916 30.6398 17.8805Z" fill="white"/>
</g>
</svg>

<svg width="48" height="47" viewBox="0 0 48 47" fill="none" xmlns="http://www.w3.org/2000/svg"><mask id="a" maskUnits="userSpaceOnUse" x="0" y="0" width="49" height="47"><path fill-rule="evenodd" clip-rule="evenodd" d="M0 .232h48v46.563H0V.232z" fill="#fff"/></mask><g mask="url(#a)"><path fill-rule="evenodd" clip-rule="evenodd" d="M48 23.514c0 12.858-10.745 23.281-24 23.281S0 36.372 0 23.514C0 10.656 10.745.232 24 .232s24 10.424 24 23.282z" fill="#FF8A80"/></g><path fill-rule="evenodd" clip-rule="evenodd" d="M29.411 26.16l-.399-.291c-2.952-2.147-7.073-2.147-10.024 0l-.399.29-.6-.775.4-.291c3.302-2.405 7.92-2.405 11.222 0l.401.29-.6.777zM16.421 34.785a.493.493 0 01-.5-.485V33.01c0-.267.224-.485.5-.485s.5.218.5.485V34.3a.493.493 0 01-.5.485zM31.58 34.785a.493.493 0 01-.5-.485V33.01c0-.267.223-.485.5-.485.275 0 .5.218.5.485V34.3a.493.493 0 01-.5.485z" fill="#fff"/><mask id="b" maskUnits="userSpaceOnUse" x="0" y="0" width="48" height="47"><path fill-rule="evenodd" clip-rule="evenodd" d="M0 46.795h48V.232H0v46.563z" fill="#fff"/></mask><g mask="url(#b)" fill-rule="evenodd" clip-rule="evenodd" fill="#fff"><path d="M13.877 31.565h20.246V13.213H13.877v18.352zm-1 .97h22.246V12.243H12.877v20.292z"/><path d="M20.017 17.88c0-.71-.595-1.288-1.328-1.288-.734 0-1.328.578-1.328 1.289 0 .71.594 1.288 1.328 1.288.733 0 1.328-.577 1.328-1.288zM25.328 17.88c0-.71-.595-1.288-1.328-1.288-.734 0-1.328.578-1.328 1.289 0 .71.594 1.288 1.328 1.288.733 0 1.328-.577 1.328-1.288zM30.64 17.88c0-.71-.595-1.288-1.328-1.288-.734 0-1.328.578-1.328 1.289 0 .71.594 1.288 1.328 1.288.733 0 1.328-.577 1.328-1.288z"/></g></svg>
